public/images/blocks/logos/romm-mono-dark.svg

<svg xmlns="http://www.w3.org/2000/svg" xmlns:xlink="http://www.w3.org/1999/xlink" width="500" zoomAndPan="magnify"
    viewBox="0 0 375 300" height="410" preserveAspectRatio="xMidYMid meet" version="1.0">
    <defs>
        <g />
        <clipPath id="63aadafd6a">
            <path d="M 36.488281 0 L 338.738281 0 L 338.738281 302.25 L 36.488281 302.25 Z M 36.488281 0 "
                clip-rule="nonzero" />
        </clipPath>
        <clipPath id="7150a12092">
            <path
                d="M 187.613281 0 C 104.128906 0 36.488281 67.640625 36.488281 151.125 C 36.488281 234.609375 104.128906 302.25 187.613281 302.25 C 271.097656 302.25 338.738281 234.609375 338.738281 151.125 C 338.738281 67.640625 271.097656 0 187.613281 0 Z M 187.613281 252.132812 C 140.859375 252.132812 101.675781 220.378906 90.113281 177.269531 C 106.65625 175.519531 125.4375 175.445312 145.625 178.8125 L 145.347656 178.953125 C 155.789062 180.703125 165.324219 186.3125 171.5625 195.074219 L 190.277344 221.082031 C 199.390625 233.769531 216.5625 238.460938 231.28125 231.175781 C 246.421875 223.675781 252.378906 205.097656 246.492188 189.253906 C 233.597656 154.492188 215.371094 105.84375 211.023438 96.734375 C 199.039062 71.636719 166.867188 70.023438 145.558594 84.746094 C 145.277344 84.953125 144.925781 85.097656 144.648438 85.308594 C 144.574219 85.375 144.503906 85.375 144.4375 85.445312 C 141.417969 87.480469 137.703125 89.023438 133.851562 90 C 123.6875 93.714844 113.3125 95.328125 103.152344 95.609375 C 121.234375 68.203125 152.214844 50.046875 187.542969 50.046875 C 243.335938 50.046875 288.550781 95.257812 288.550781 151.054688 C 288.550781 206.847656 243.410156 252.132812 187.613281 252.132812 Z M 187.613281 252.132812 "
                clip-rule="nonzero" />
        </clipPath>
        <clipPath id="56c60a6125">
            <path
                d="M 41.1875 177.34375 L 95.859375 177.34375 L 95.859375 221.292969 L 41.1875 221.292969 Z M 41.1875 177.34375 "
                clip-rule="nonzero" />
        </clipPath>
        <clipPath id="8b97cbe103">
            <path
                d="M 90.113281 177.34375 C 69.785156 179.441406 52.75 184.070312 41.1875 188.066406 C 42.585938 193.671875 44.339844 199.210938 46.371094 204.539062 C 46.511719 204.886719 46.582031 205.167969 46.722656 205.515625 C 48.753906 210.917969 51.136719 216.171875 53.800781 221.292969 C 64.804688 205.308594 81.277344 197.320312 95.859375 193.25 C 93.542969 188.203125 91.582031 182.878906 90.113281 177.34375 Z M 90.113281 177.34375 "
                clip-rule="nonzero" />
        </clipPath>
        <clipPath id="fbe5306e37">
            <path
                d="M 51.136719 60.140625 L 110.71875 60.140625 L 110.71875 95.914062 L 51.136719 95.914062 Z M 51.136719 60.140625 "
                clip-rule="nonzero" />
        </clipPath>
        <clipPath id="0a8f682a16">
            <path
                d="M 103.21875 95.609375 C 105.535156 92.171875 107.988281 88.8125 110.71875 85.726562 L 110.648438 85.726562 C 110.648438 85.726562 84.785156 79.628906 67.1875 60.140625 C 64.105469 64.207031 61.230469 68.480469 58.570312 72.898438 C 58.570312 72.898438 58.5 72.96875 58.5 72.96875 C 55.835938 77.386719 53.382812 81.941406 51.136719 86.566406 C 65.015625 91.476562 83.660156 96.03125 103.21875 95.609375 Z M 103.21875 95.609375 "
                clip-rule="nonzero" />
        </clipPath>
    </defs>
    <g clip-path="url(#63aadafd6a)">
        <g clip-path="url(#7150a12092)">
            <path fill="#ffffff"
                d="M 36.488281 0 L 36.488281 302.25 L 338.738281 302.25 L 338.738281 0 Z M 36.488281 0 "
                fill-rule="nonzero" />
        </g>
    </g>
    <path fill="#1c1f22"
        d="M 176.679688 117.898438 C 176.679688 118.382812 176.632812 118.863281 176.539062 119.335938 C 176.441406 119.8125 176.304688 120.269531 176.117188 120.71875 C 175.933594 121.164062 175.707031 121.585938 175.4375 121.988281 C 175.171875 122.390625 174.867188 122.765625 174.523438 123.105469 C 174.183594 123.445312 173.8125 123.753906 173.40625 124.019531 C 173.003906 124.289062 172.582031 124.515625 172.136719 124.699219 C 171.6875 124.886719 171.230469 125.023438 170.753906 125.117188 C 170.28125 125.214844 169.804688 125.261719 169.316406 125.261719 C 168.835938 125.261719 168.359375 125.214844 167.882812 125.117188 C 167.410156 125.023438 166.945312 124.886719 166.503906 124.699219 C 166.054688 124.515625 165.632812 124.289062 165.226562 124.019531 C 164.828125 123.753906 164.457031 123.445312 164.113281 123.105469 C 163.773438 122.765625 163.46875 122.390625 163.199219 121.988281 C 162.929688 121.585938 162.703125 121.164062 162.519531 120.71875 C 162.335938 120.269531 162.191406 119.8125 162.097656 119.335938 C 162.007812 118.863281 161.960938 118.382812 161.960938 117.898438 C 161.960938 117.417969 162.007812 116.9375 162.097656 116.464844 C 162.191406 115.992188 162.335938 115.527344 162.519531 115.085938 C 162.703125 114.636719 162.929688 114.210938 163.199219 113.808594 C 163.46875 113.410156 163.773438 113.039062 164.113281 112.695312 C 164.457031 112.355469 164.828125 112.050781 165.226562 111.777344 C 165.632812 111.511719 166.054688 111.285156 166.503906 111.097656 C 166.945312 110.917969 167.410156 110.773438 167.882812 110.679688 C 168.359375 110.585938 168.835938 110.539062 169.316406 110.539062 C 169.804688 110.539062 170.28125 110.585938 170.753906 110.679688 C 171.230469 110.773438 171.6875 110.917969 172.136719 111.097656 C 172.582031 111.285156 173.003906 111.511719 173.40625 111.777344 C 173.8125 112.050781 174.183594 112.355469 174.523438 112.695312 C 174.867188 113.039062 175.171875 113.410156 175.4375 113.808594 C 175.707031 114.210938 175.933594 114.636719 176.117188 115.085938 C 176.304688 115.527344 176.441406 115.992188 176.539062 116.464844 C 176.632812 116.9375 176.679688 117.417969 176.679688 117.898438 Z M 176.679688 117.898438 "
        fill-opacity="1" fill-rule="nonzero" />
    <path fill="#1c1f22"
        d="M 176.679688 146.988281 C 176.679688 147.472656 176.632812 147.953125 176.539062 148.421875 C 176.441406 148.898438 176.304688 149.359375 176.117188 149.804688 C 175.933594 150.253906 175.707031 150.679688 175.4375 151.078125 C 175.171875 151.480469 174.867188 151.851562 174.523438 152.191406 C 174.183594 152.535156 173.8125 152.839844 173.40625 153.109375 C 173.003906 153.375 172.582031 153.601562 172.136719 153.789062 C 171.6875 153.972656 171.230469 154.113281 170.753906 154.207031 C 170.28125 154.300781 169.804688 154.347656 169.316406 154.347656 C 168.835938 154.347656 168.359375 154.300781 167.882812 154.207031 C 167.410156 154.113281 166.945312 153.972656 166.503906 153.789062 C 166.054688 153.601562 165.632812 153.375 165.226562 153.109375 C 164.828125 152.839844 164.457031 152.535156 164.113281 152.191406 C 163.773438 151.851562 163.46875 151.480469 163.199219 151.078125 C 162.929688 150.679688 162.703125 150.253906 162.519531 149.804688 C 162.335938 149.359375 162.191406 148.898438 162.097656 148.421875 C 162.007812 147.953125 161.960938 147.472656 161.960938 146.988281 C 161.960938 146.507812 162.007812 146.027344 162.097656 145.550781 C 162.191406 145.078125 162.335938 144.621094 162.519531 144.171875 C 162.703125 143.726562 162.929688 143.300781 163.199219 142.902344 C 163.46875 142.5 163.773438 142.125 164.113281 141.785156 C 164.457031 141.445312 164.828125 141.136719 165.226562 140.871094 C 165.632812 140.601562 166.054688 140.375 166.503906 140.191406 C 166.945312 140.003906 167.410156 139.867188 167.882812 139.773438 C 168.359375 139.675781 168.835938 139.628906 169.316406 139.628906 C 169.804688 139.628906 170.28125 139.675781 170.753906 139.773438 C 171.230469 139.867188 171.6875 140.003906 172.136719 140.191406 C 172.582031 140.375 173.003906 140.601562 173.40625 140.871094 C 173.8125 141.136719 174.183594 141.445312 174.523438 141.785156 C 174.867188 142.125 175.171875 142.5 175.4375 142.902344 C 175.707031 143.300781 175.933594 143.726562 176.117188 144.171875 C 176.304688 144.621094 176.441406 145.078125 176.539062 145.550781 C 176.632812 146.027344 176.679688 146.507812 176.679688 146.988281 Z M 176.679688 146.988281 "
        fill-opacity="1" fill-rule="nonzero" />
    <path fill="#1c1f22"
        d="M 162.097656 132.410156 C 162.097656 132.890625 162.050781 133.371094 161.957031 133.847656 C 161.863281 134.320312 161.722656 134.777344 161.539062 135.226562 C 161.351562 135.671875 161.125 136.097656 160.859375 136.496094 C 160.589844 136.898438 160.285156 137.273438 159.941406 137.613281 C 159.601562 137.957031 159.230469 138.261719 158.828125 138.527344 C 158.425781 138.800781 158.003906 139.027344 157.554688 139.207031 C 157.109375 139.394531 156.648438 139.53125 156.171875 139.625 C 155.699219 139.722656 155.222656 139.769531 154.738281 139.769531 C 154.253906 139.769531 153.777344 139.722656 153.300781 139.625 C 152.828125 139.53125 152.371094 139.394531 151.921875 139.207031 C 151.476562 139.027344 151.050781 138.800781 150.652344 138.527344 C 150.246094 138.261719 149.875 137.957031 149.53125 137.613281 C 149.191406 137.273438 148.886719 136.898438 148.621094 136.496094 C 148.347656 136.097656 148.121094 135.671875 147.941406 135.226562 C 147.753906 134.777344 147.617188 134.320312 147.519531 133.847656 C 147.425781 133.371094 147.378906 132.890625 147.378906 132.410156 C 147.378906 131.925781 147.425781 131.449219 147.519531 130.976562 C 147.617188 130.5 147.753906 130.039062 147.941406 129.59375 C 148.121094 129.144531 148.347656 128.722656 148.621094 128.320312 C 148.886719 127.917969 149.191406 127.546875 149.53125 127.207031 C 149.875 126.863281 150.246094 126.558594 150.652344 126.289062 C 151.050781 126.023438 151.476562 125.796875 151.921875 125.609375 C 152.371094 125.425781 152.828125 125.285156 153.300781 125.191406 C 153.777344 125.097656 154.253906 125.050781 154.738281 125.050781 C 155.222656 125.050781 155.699219 125.097656 156.171875 125.191406 C 156.648438 125.285156 157.109375 125.425781 157.554688 125.609375 C 158.003906 125.796875 158.425781 126.023438 158.828125 126.289062 C 159.230469 126.558594 159.601562 126.863281 159.941406 127.207031 C 160.285156 127.546875 160.589844 127.917969 160.859375 128.320312 C 161.125 128.722656 161.351562 129.144531 161.539062 129.59375 C 161.722656 130.039062 161.863281 130.5 161.957031 130.976562 C 162.050781 131.449219 162.097656 131.925781 162.097656 132.410156 Z M 162.097656 132.410156 "
        fill-opacity="1" fill-rule="nonzero" />
    <path fill="#1c1f22"
        d="M 191.1875 132.410156 C 191.1875 132.890625 191.140625 133.371094 191.046875 133.847656 C 190.953125 134.320312 190.8125 134.777344 190.625 135.226562 C 190.445312 135.671875 190.21875 136.097656 189.945312 136.496094 C 189.679688 136.898438 189.375 137.273438 189.035156 137.613281 C 188.691406 137.957031 188.320312 138.261719 187.914062 138.527344 C 187.515625 138.800781 187.089844 139.027344 186.644531 139.207031 C 186.199219 139.394531 185.738281 139.53125 185.265625 139.625 C 184.789062 139.722656 184.3125 139.769531 183.828125 139.769531 C 183.34375 139.769531 182.867188 139.722656 182.394531 139.625 C 181.917969 139.53125 181.457031 139.394531 181.011719 139.207031 C 180.5625 139.027344 180.140625 138.800781 179.738281 138.527344 C 179.335938 138.261719 178.964844 137.957031 178.625 137.613281 C 178.28125 137.273438 177.976562 136.898438 177.707031 136.496094 C 177.441406 136.097656 177.214844 135.671875 177.027344 135.226562 C 176.84375 134.777344 176.703125 134.320312 176.609375 133.847656 C 176.515625 133.371094 176.46875 132.890625 176.46875 132.410156 C 176.46875 131.925781 176.515625 131.449219 176.609375 130.976562 C 176.703125 130.5 176.84375 130.039062 177.027344 129.59375 C 177.214844 129.144531 177.441406 128.722656 177.707031 128.320312 C 177.976562 127.917969 178.28125 127.546875 178.625 127.207031 C 178.964844 126.863281 179.335938 126.558594 179.738281 126.289062 C 180.140625 126.023438 180.5625 125.796875 181.011719 125.609375 C 181.457031 125.425781 181.917969 125.285156 182.394531 125.191406 C 182.867188 125.097656 183.34375 125.050781 183.828125 125.050781 C 184.3125 125.050781 184.789062 125.097656 185.265625 125.191406 C 185.738281 125.285156 186.199219 125.425781 186.644531 125.609375 C 187.089844 125.796875 187.515625 126.023438 187.914062 126.289062 C 188.320312 126.558594 188.691406 126.863281 189.035156 127.207031 C 189.375 127.546875 189.679688 127.917969 189.945312 128.320312 C 190.21875 128.722656 190.445312 129.144531 190.625 129.59375 C 190.8125 130.039062 190.953125 130.5 191.046875 130.976562 C 191.140625 131.449219 191.1875 131.925781 191.1875 132.410156 Z M 191.1875 132.410156 "
        fill-opacity="1" fill-rule="nonzero" />
    <g clip-path="url(#56c60a6125)">
        <g clip-path="url(#8b97cbe103)">
            <path fill="#1c1b22"
                d="M 41.1875 177.34375 L 41.1875 221.292969 L 95.859375 221.292969 L 95.859375 177.34375 Z M 41.1875 177.34375 "
                fill-rule="nonzero" />
        </g>
    </g>    <g clip-path="url(#fbe5306e37)">
        <g clip-path="url(#0a8f682a16)">
            <path fill="#1c1b22"
                d="M 51.136719 60.140625 L 51.136719 95.914062 L 110.71875 95.914062 L 110.71875 60.140625 Z M 51.136719 60.140625 "
                fill-rule="nonzero" />
        </g>
    </g>
</svg>

<svg xmlns="http://www.w3.org/2000/svg" width="500" height="410" version="1.0" viewBox="0 0 375 300"><defs><clipPath id="a"><path d="M36.488 0h302.25v302.25H36.488Zm0 0"/></clipPath><clipPath id="b"><path d="M187.613 0C104.13 0 36.488 67.64 36.488 151.125c0 83.484 67.64 151.125 151.125 151.125s151.125-67.64 151.125-151.125C338.738 67.641 271.098 0 187.613 0m0 252.133c-46.754 0-85.937-31.754-97.5-74.863 16.543-1.75 35.325-1.825 55.512 1.542l-.277.141c10.441 1.75 19.976 7.36 26.214 16.121l18.715 26.008c9.114 12.688 26.286 17.379 41.004 10.094 15.14-7.5 21.098-26.078 15.211-41.922-12.894-34.762-31.12-83.41-35.469-92.52-11.984-25.097-44.156-26.71-65.464-11.988-.282.207-.633.352-.91.563-.075.066-.145.066-.212.136-3.019 2.035-6.734 3.578-10.585 4.555-10.165 3.715-20.54 5.328-30.7 5.61 18.082-27.407 49.063-45.563 84.391-45.563 55.793 0 101.008 45.21 101.008 101.008 0 55.793-45.14 101.078-100.938 101.078m0 0"/></clipPath><clipPath id="c"><path d="M41.188 177.344h54.671v43.949H41.188Zm0 0"/></clipPath><clipPath id="d"><path d="M90.113 177.344c-20.328 2.097-37.363 6.726-48.925 10.722a145 145 0 0 0 5.183 16.473c.14.348.211.629.352.977 2.03 5.402 4.414 10.656 7.078 15.777 11.004-15.984 27.476-23.973 42.058-28.043-2.316-5.047-4.277-10.371-5.746-15.906m0 0"/></clipPath><clipPath id="e"><path d="M51.137 60.14h59.582v35.774H51.137Zm0 0"/></clipPath><clipPath id="f"><path d="M103.219 95.61c2.316-3.438 4.77-6.797 7.5-9.883h-.07S84.784 79.629 67.187 60.14a145 145 0 0 0-8.618 12.757l-.07.07a171 171 0 0 0-7.363 13.598c13.879 4.91 32.523 9.465 52.082 9.043m0 0"/></clipPath></defs><g clip-path="url(#a)"><g clip-path="url(#b)"><path fill="#fff" d="M36.488 0v302.25h302.25V0Zm0 0"/></g></g><path fill="#1c1f22" d="M176.68 117.898q0 .728-.14 1.438a7.4 7.4 0 0 1-1.102 2.652q-.398.606-.915 1.117a7 7 0 0 1-1.117.915q-.602.404-1.27.68a7 7 0 0 1-1.382.417q-.708.146-1.438.145-.72.001-1.433-.145a7 7 0 0 1-1.38-.418 7.3 7.3 0 0 1-3.304-2.71 7.4 7.4 0 0 1-1.102-2.652 7.7 7.7 0 0 1-.136-1.439q.001-.722.137-1.433a7.3 7.3 0 0 1 .422-1.38q.275-.672.68-1.276.403-.598.913-1.114.516-.509 1.114-.918a8 8 0 0 1 1.277-.68 7.4 7.4 0 0 1 4.25-.418c.476.094.933.239 1.383.419a8 8 0 0 1 1.27.68q.607.408 1.116.917a7.3 7.3 0 0 1 1.594 2.39 7.3 7.3 0 0 1 .563 2.813m0 29.09a7.3 7.3 0 0 1-.563 2.817q-.275.675-.68 1.273-.398.604-.914 1.113-.508.515-1.117.918a8 8 0 0 1-1.27.68 7.4 7.4 0 0 1-2.82.559 7.4 7.4 0 0 1-2.812-.559 8 8 0 0 1-1.277-.68 7.6 7.6 0 0 1-1.114-.918 7.4 7.4 0 0 1-2.015-3.77 7.6 7.6 0 0 1 0-2.87c.093-.473.238-.93.422-1.38a7.4 7.4 0 0 1 1.594-2.387 7.3 7.3 0 0 1 2.39-1.594 7 7 0 0 1 1.379-.417 7 7 0 0 1 1.433-.144c.489 0 .965.047 1.438.144.476.094.934.23 1.383.418q.666.275 1.27.68a7 7 0 0 1 1.116.914q.516.512.915 1.117.404.6.68 1.27c.187.45.323.906.421 1.379q.14.715.14 1.437m-14.581-14.578q0 .721-.141 1.438-.142.707-.418 1.379a7.6 7.6 0 0 1-.68 1.27c-.27.401-.574.776-.918 1.116q-.51.516-1.113.914-.601.41-1.273.68a7 7 0 0 1-1.383.418q-.709.146-1.434.145c-.484 0-.96-.047-1.437-.145a7 7 0 0 1-1.38-.418 6.6 6.6 0 0 1-1.269-.68 7.2 7.2 0 0 1-2.031-2.031 6.6 6.6 0 0 1-.68-1.27 7.5 7.5 0 0 1-.421-1.378 7.4 7.4 0 0 1 0-2.871c.097-.477.234-.938.421-1.383.18-.45.407-.871.68-1.274q.4-.603.91-1.113a7.2 7.2 0 0 1 1.121-.918 7.6 7.6 0 0 1 1.27-.68c.45-.183.906-.324 1.379-.418a7.4 7.4 0 0 1 4.254.418c.449.188.87.414 1.273.68q.604.403 1.113.918.515.51.918 1.113a7.34 7.34 0 0 1 1.238 4.09m29.091 0q0 .721-.141 1.438a7.2 7.2 0 0 1-.422 1.379q-.27.669-.68 1.27a7.2 7.2 0 0 1-2.03 2.03q-.601.41-1.27.68a7 7 0 0 1-1.38.418 7 7 0 0 1-1.437.145q-.725.001-1.433-.145a7 7 0 0 1-1.383-.418 6.7 6.7 0 0 1-1.274-.68 7 7 0 0 1-1.113-.914 7.2 7.2 0 0 1-.918-1.117 7.6 7.6 0 0 1-.68-1.27 7.5 7.5 0 0 1-.418-1.378 7.4 7.4 0 0 1 0-2.871 7.34 7.34 0 0 1 2.016-3.77q.51-.514 1.113-.918a7.34 7.34 0 0 1 4.09-1.238q.724 0 1.438.14.709.142 1.379.418.669.282 1.27.68a7.2 7.2 0 0 1 2.03 2.031c.274.403.5.825.68 1.274q.281.668.422 1.383.14.708.14 1.433m0 0"/><g clip-path="url(#c)"><g clip-path="url(#d)"><path fill="#1c1b22" d="M41.188 177.344v43.949h54.671v-43.95Zm0 0"/></g></g><g clip-path="url(#e)"><g clip-path="url(#f)"><path fill="#1c1b22" d="M51.137 60.14v35.774h59.582V60.141Zm0 0"/></g></g></svg>
